src/main/content/img/download_downarrow.svg

<?xml version="1.0" encoding="UTF-8"?>
<svg width="12px" height="17px" viewBox="0 0 12 17" version="1.1" xmlns="http://www.w3.org/2000/svg" xmlns:xlink="http://www.w3.org/1999/xlink">
    <!-- Generator: Sketch 50.2 (55047) - http://www.bohemiancoding.com/sketch -->
    <title>Group 3</title>
    <desc>Created with Sketch.</desc>
    <defs>
        <polygon id="path-1" points="0.389974913 0.92 11.9845566 0.92 11.9845566 16.2646 0.389974913 16.2646"></polygon>
    </defs>
    <g id="All-page" stroke="none" stroke-width="1" fill="none" fill-rule="evenodd">
        <g id="Downloads_PageOnLoad" transform="translate(-1255.000000, -329.000000)">
            <g id="Group-3" transform="translate(1255.000000, 329.000000)">
                <mask id="mask-2" fill="white">
                    <use xlink:href="#path-1"></use>
                </mask>
                <g id="Clip-2"></g>
                <path d="M6.0626,16.2646 L6.9256,15.4586 L11.4996,11.3376 C12.1096,10.7776 12.1496,9.8286 11.5886,9.2186 C11.0296,8.6076 10.0786,8.5676 9.4696,9.1276 L9.4346,9.1606 L9.4176,9.1766 L7.5626,10.7896 L7.5626,2.4196 C7.5626,1.5916 6.8906,0.9196 6.0626,0.9196 C5.2336,0.9196 4.5626,1.5916 4.5626,2.4196 L4.5626,10.7206 L2.9186,9.1486 C2.9176,9.1476 2.9156,9.1476 2.9146,9.1466 L2.8536,9.0876 L2.8416,9.0996 C2.2416,8.5946 1.3506,8.6206 0.7986,9.1966 C0.2496,9.7696 0.2616,10.6556 0.7876,11.2336 L0.7736,11.2486" id="Fill-1" fill="#3F465A" mask="url(#mask-2)"></path>
            </g>
        </g>
    </g>
</svg>

<svg width="12" height="17" xmlns="http://www.w3.org/2000/svg" xmlns:xlink="http://www.w3.org/1999/xlink"><defs><path id="a" d="M.39.92h11.595v15.345H.39z"/></defs><g fill="none" fill-rule="evenodd"><mask id="b" fill="#fff"><use xlink:href="#a"/></mask><path d="M6.063 16.265l.863-.806 4.574-4.121c.61-.56.65-1.51.089-2.12a1.5 1.5 0 0 0-2.12-.09l-.034.033-.017.016-1.855 1.613V2.42a1.5 1.5 0 0 0-3 0v8.3L2.919 9.15l-.004-.002-.061-.06-.012.013a1.492 1.492 0 0 0-2.043.097 1.488 1.488 0 0 0-.011 2.037l-.014.015" fill="#3F465A" mask="url(#b)"/></g></svg>
